!!! OTL: Berkowitz222
!!! Chapter: 1
!!! Section: II
!!! Page: 51
!!! Mode: 
!!! Encoder: DJB
**kern
*staff1
*I"Piano
=1-
*clefC3
*k[b-e-a-]
*E-:
*M2/4
8r
8r
8r
8B-/
=2
8e-\L
16f\L
16g\JJ
8f\L
8e-\J
=3
8d\L
8e-\J
8f\
16r
16B-/
=4
8f\L
16g\L
16a-\JJ
8g\L
8f\J
=5
8e-\L
8g\J
4b-\
=6
8cc\L
8cc\J
8f\L
16g\L
16a-\JJ
=7
8b-\L
8b-\J
8e-\L
16f\L
16g\JJ
=8
8a-\L
8g\J
8f\L
8e-\J
=9
!!linebreak:original
8d\L
8c\J
8B-\L
16c\L
16d\JJ
=10
8e-\L
8f\J
8g\L
8a-\J
=11
4g\
4f\
=12
8cc\L
8cc\J
8f\L
16g\L
16a-\JJ
=13
8b-\L
8b-\J
8e-\L
16f\L
16g\JJ
=14
8a-\L
8g\J
8f\L
8b-\J
=15
8r
8B-/
8e-\
8r
==
*-
